X: 1
T: Fraser's Jig
P: piffero primo a0696
O: Dan Hughie MacEachern
%R: ji
F: http://ancients.sudburymuster.org/mus/sng/pdf/frasersC0.pdf
Z: 2020 John Chambers <jc:trillian.mit.edu>
M: 6/8
L: 1/8
K: Amix
E |:\
ABA e3  | ede a3  | g2d ege |  dBG BAG |\
ABA e3  | ede a2f | g2e dBG |1 A3  A2E :|2 A3 Ace ||
a3  efg | aga e2f | g2d ege |  dBG G2e |\
a3  efg | aga e2f | g2e dBG |  A3  Ace ||
a3  efg | aga e2f | g2d ege |  dBG BAG |\
ABA ede | aga b2a | g2e dBG |  A3 A2 |]
